src/icons/svg/light.svg

<svg width="20" height="20" viewBox="0 0 20 20" fill="none" xmlns="http://www.w3.org/2000/svg">
<path fill-rule="evenodd" clip-rule="evenodd" d="M10 2.40002C10.3314 2.40002 10.6 2.66865 10.6 3.00002V4.40002C10.6 4.7314 10.3314 5.00002 10 5.00002C9.66864 5.00002 9.40001 4.7314 9.40001 4.40002V3.00002C9.40001 2.66865 9.66864 2.40002 10 2.40002ZM10 15C10.3314 15 10.6 15.2687 10.6 15.6V17C10.6 17.3314 10.3314 17.6 10 17.6C9.66864 17.6 9.40001 17.3314 9.40001 17V15.6C9.40001 15.2687 9.66864 15 10 15ZM10 12.8C11.5464 12.8 12.8 11.5464 12.8 10C12.8 8.45363 11.5464 7.20002 10 7.20002C8.45361 7.20002 7.20001 8.45363 7.20001 10C7.20001 11.5464 8.45361 12.8 10 12.8ZM10 14C12.2091 14 14 12.2092 14 10C14 7.79089 12.2091 6.00002 10 6.00002C7.79087 6.00002 6.00001 7.79089 6.00001 10C6.00001 12.2092 7.79087 14 10 14ZM17 10.6C17.3314 10.6 17.6 10.3314 17.6 10C17.6 9.66865 17.3314 9.40002 17 9.40002H15.6C15.2686 9.40002 15 9.66865 15 10C15 10.3314 15.2686 10.6 15.6 10.6H17ZM4.40001 10.6C4.73138 10.6 5.00001 10.3314 5.00001 10C5.00001 9.66865 4.73138 9.40002 4.40001 9.40002H3.00001C2.66864 9.40002 2.40001 9.66865 2.40001 10C2.40001 10.3314 2.66864 10.6 3.00001 10.6H4.40001ZM15.3735 15.3735C15.1391 15.6078 14.7593 15.6078 14.5249 15.3735L13.7757 14.6243C13.5414 14.39 13.5414 14.0101 13.7757 13.7758C14.01 13.5415 14.3899 13.5415 14.6242 13.7758L15.3735 14.525C15.6078 14.7593 15.6078 15.1392 15.3735 15.3735ZM6.22424 6.22431C5.98992 6.45862 5.61003 6.45862 5.37571 6.22431L4.62543 5.47403C4.39112 5.23972 4.39112 4.85982 4.62543 4.6255C4.85975 4.39119 5.23965 4.39119 5.47396 4.6255L6.22424 5.37578C6.45855 5.61009 6.45855 5.98999 6.22424 6.22431ZM4.6265 14.525C4.39218 14.7593 4.39218 15.1392 4.6265 15.3735C4.86081 15.6078 5.24071 15.6078 5.47503 15.3735L6.22561 14.6229C6.45993 14.3886 6.45993 14.0087 6.22561 13.7744C5.9913 13.5401 5.6114 13.5401 5.37709 13.7744L4.6265 14.525ZM13.7757 5.37578C13.5414 5.6101 13.5414 5.98999 13.7757 6.22431C14.01 6.45862 14.3899 6.45862 14.6243 6.22431L15.3745 5.47403C15.6088 5.23971 15.6088 4.85982 15.3745 4.6255C15.1402 4.39119 14.7603 4.39119 14.526 4.6255L13.7757 5.37578Z" fill="#19191C"/>
</svg>

<svg xmlns="http://www.w3.org/2000/svg" width="20" height="20" fill="none"><path fill="#19191C" fill-rule="evenodd" d="M10 2.4a.6.6 0 0 1 .6.6v1.4a.6.6 0 1 1-1.2 0V3a.6.6 0 0 1 .6-.6M10 15a.6.6 0 0 1 .6.6V17a.6.6 0 1 1-1.2 0v-1.4a.6.6 0 0 1 .6-.6m0-2.2a2.8 2.8 0 1 0 0-5.6 2.8 2.8 0 0 0 0 5.6m0 1.2a4 4 0 1 0 0-8 4 4 0 0 0 0 8m7-3.4a.6.6 0 1 0 0-1.2h-1.4a.6.6 0 1 0 0 1.2zm-12.6 0a.6.6 0 1 0 0-1.2H3a.6.6 0 1 0 0 1.2zm10.974 4.774a.6.6 0 0 1-.85 0l-.748-.75a.6.6 0 0 1 .848-.848l.75.749a.6.6 0 0 1 0 .848m-9.15-9.15a.6.6 0 0 1-.848 0l-.75-.75a.6.6 0 0 1 .848-.849l.75.75a.6.6 0 0 1 0 .85m-1.598 8.301a.6.6 0 1 0 .849.848l.75-.75a.6.6 0 1 0-.848-.849zm9.15-9.15a.6.6 0 0 0 .848.85l.75-.751a.6.6 0 0 0-.848-.849z" clip-rule="evenodd"/></svg>
